X: 30
T: a Health to the Maiden
R: reel
O: England
M: 4/4
L: 1/8
Z: 2010 John Chambers <jc:trillian.mit.edu>
S: http://www.pd49.dial.pipex.com/morris/choreog/brim_mus.htm
K: G
GA \
| B2B2 B2AG | AGAB G2AB | cBAG GABc | d2c2 B2dc |
| B2B2 B2AG | AGAB G2AB | cBAG GABc |1 A3G/F/ G2 dc :|2 A3G/F/ G4 ||
|: GABc d2d2 | d2e2 d3d | e2d2 g2B2 | d2c2 B2dc |
| B2B2 B2AG | AGAB G2AB | cBAG GABc |1 A3G/F/ G4 :|2 A3G/F/ HG2dc |]


